images/Instagram_whitel.svg

<svg width="48" height="48" viewBox="0 0 48 48" fill="none" xmlns="http://www.w3.org/2000/svg">
<g clip-path="url(#clip0_17_27)">
<path d="M24 4.32187C30.4125 4.32187 31.1719 4.35 33.6938 4.4625C36.0375 4.56562 37.3031 4.95938 38.1469 5.2875C39.2625 5.71875 40.0688 6.24375 40.9031 7.07812C41.7469 7.92188 42.2625 8.71875 42.6938 9.83438C43.0219 10.6781 43.4156 11.9531 43.5188 14.2875C43.6313 16.8187 43.6594 17.5781 43.6594 23.9813C43.6594 30.3938 43.6313 31.1531 43.5188 33.675C43.4156 36.0188 43.0219 37.2844 42.6938 38.1281C42.2625 39.2438 41.7375 40.05 40.9031 40.8844C40.0594 41.7281 39.2625 42.2438 38.1469 42.675C37.3031 43.0031 36.0281 43.3969 33.6938 43.5C31.1625 43.6125 30.4031 43.6406 24 43.6406C17.5875 43.6406 16.8281 43.6125 14.3063 43.5C11.9625 43.3969 10.6969 43.0031 9.85313 42.675C8.7375 42.2438 7.93125 41.7188 7.09688 40.8844C6.25313 40.0406 5.7375 39.2438 5.30625 38.1281C4.97813 37.2844 4.58438 36.0094 4.48125 33.675C4.36875 31.1438 4.34063 30.3844 4.34063 23.9813C4.34063 17.5688 4.36875 16.8094 4.48125 14.2875C4.58438 11.9437 4.97813 10.6781 5.30625 9.83438C5.7375 8.71875 6.2625 7.9125 7.09688 7.07812C7.94063 6.23438 8.7375 5.71875 9.85313 5.2875C10.6969 4.95938 11.9719 4.56562 14.3063 4.4625C16.8281 4.35 17.5875 4.32187 24 4.32187ZM24 0C17.4844 0 16.6688 0.028125 14.1094 0.140625C11.5594 0.253125 9.80625 0.665625 8.2875 1.25625C6.70313 1.875 5.3625 2.69062 4.03125 4.03125C2.69063 5.3625 1.875 6.70313 1.25625 8.27813C0.665625 9.80625 0.253125 11.55 0.140625 14.1C0.028125 16.6687 0 17.4844 0 24C0 30.5156 0.028125 31.3313 0.140625 33.8906C0.253125 36.4406 0.665625 38.1938 1.25625 39.7125C1.875 41.2969 2.69063 42.6375 4.03125 43.9688C5.3625 45.3 6.70313 46.125 8.27813 46.7344C9.80625 47.325 11.55 47.7375 14.1 47.85C16.6594 47.9625 17.475 47.9906 23.9906 47.9906C30.5063 47.9906 31.3219 47.9625 33.8813 47.85C36.4313 47.7375 38.1844 47.325 39.7031 46.7344C41.2781 46.125 42.6188 45.3 43.95 43.9688C45.2813 42.6375 46.1063 41.2969 46.7156 39.7219C47.3063 38.1938 47.7188 36.45 47.8313 33.9C47.9438 31.3406 47.9719 30.525 47.9719 24.0094C47.9719 17.4938 47.9438 16.6781 47.8313 14.1188C47.7188 11.5688 47.3063 9.81563 46.7156 8.29688C46.125 6.70312 45.3094 5.3625 43.9688 4.03125C42.6375 2.7 41.2969 1.875 39.7219 1.26562C38.1938 0.675 36.45 0.2625 33.9 0.15C31.3313 0.028125 30.5156 0 24 0Z" fill="white"/>
<path d="M24 11.6719C17.1938 11.6719 11.6719 17.1938 11.6719 24C11.6719 30.8062 17.1938 36.3281 24 36.3281C30.8062 36.3281 36.3281 30.8062 36.3281 24C36.3281 17.1938 30.8062 11.6719 24 11.6719ZM24 31.9969C19.5844 31.9969 16.0031 28.4156 16.0031 24C16.0031 19.5844 19.5844 16.0031 24 16.0031C28.4156 16.0031 31.9969 19.5844 31.9969 24C31.9969 28.4156 28.4156 31.9969 24 31.9969Z" fill="white"/>
<path d="M39.6937 11.1844C39.6937 12.7782 38.4 14.0625 36.8156 14.0625C35.2219 14.0625 33.9375 12.7688 33.9375 11.1844C33.9375 9.59065 35.2313 8.30627 36.8156 8.30627C38.4 8.30627 39.6937 9.60003 39.6937 11.1844Z" fill="white"/>
</g>
<defs>
<clipPath id="clip0_17_27">
<rect width="48" height="48" fill="white"/>
</clipPath>
</defs>
</svg>

<svg width="48" height="48" fill="none" xmlns="http://www.w3.org/2000/svg"><g clip-path="url(#a)" fill="#fff"><path d="M24 4.322c6.413 0 7.172.028 9.694.14 2.343.104 3.61.497 4.453.825 1.116.432 1.922.957 2.756 1.791.844.844 1.36 1.64 1.79 2.756.329.844.723 2.12.826 4.454.112 2.53.14 3.29.14 9.693 0 6.413-.028 7.172-.14 9.694-.103 2.344-.497 3.61-.825 4.453-.431 1.116-.957 1.922-1.79 2.756-.845.844-1.642 1.36-2.757 1.791-.844.328-2.119.722-4.453.825-2.532.112-3.29.14-9.694.14-6.413 0-7.172-.028-9.694-.14-2.343-.103-3.61-.497-4.453-.825-1.115-.431-1.922-.956-2.756-1.79-.844-.844-1.36-1.641-1.79-2.757-.329-.844-.723-2.119-.826-4.453-.112-2.531-.14-3.29-.14-9.694 0-6.412.028-7.172.14-9.694.103-2.343.497-3.609.825-4.453.431-1.115.957-1.921 1.79-2.756.845-.844 1.642-1.36 2.757-1.79.844-.329 2.119-.722 4.453-.825 2.522-.113 3.281-.141 9.694-.141ZM24 0c-6.516 0-7.331.028-9.89.14-2.55.113-4.304.526-5.822 1.116-1.585.619-2.926 1.435-4.257 2.775-1.34 1.332-2.156 2.672-2.775 4.247C.666 9.806.253 11.55.141 14.1.028 16.669 0 17.484 0 24s.028 7.331.14 9.89c.113 2.55.526 4.304 1.116 5.822.619 1.585 1.435 2.925 2.775 4.257a11.732 11.732 0 0 0 4.247 2.765c1.528.591 3.272 1.003 5.822 1.116 2.56.112 3.375.14 9.89.14 6.516 0 7.332-.028 9.891-.14 2.55-.113 4.303-.525 5.822-1.116a11.732 11.732 0 0 0 4.247-2.765 11.73 11.73 0 0 0 2.766-4.247c.59-1.528 1.003-3.272 1.115-5.822.113-2.56.14-3.375.14-9.89 0-6.516-.027-7.332-.14-9.891-.112-2.55-.525-4.303-1.115-5.822-.591-1.594-1.407-2.935-2.747-4.266a11.732 11.732 0 0 0-4.247-2.765C38.194.675 36.45.262 33.9.15 31.331.028 30.516 0 24 0Z"/><path d="M24 11.672c-6.806 0-12.328 5.522-12.328 12.328 0 6.806 5.522 12.328 12.328 12.328 6.806 0 12.328-5.522 12.328-12.328 0-6.806-5.522-12.328-12.328-12.328Zm0 20.325a7.998 7.998 0 0 1 0-15.994 7.998 7.998 0 0 1 0 15.994ZM39.694 11.184a2.879 2.879 0 1 1-2.878-2.878 2.885 2.885 0 0 1 2.878 2.878Z"/></g><defs><clipPath id="a"><path fill="#fff" d="M0 0h48v48H0z"/></clipPath></defs></svg>
